X:1
L:1/16
Q:1/4=80
M:2/4
K:Gmin
 g2ba g2d2 | (dc)ed B2G2 | D2^FA d2AF | G2DB, G,4 | g2ba g2d2 | (dc)ed B2G2 | D2^FA d2AF | 
 G2G2 G4 ::{B} d2(dc) c2(cA) | B2BG ^F2D2 | G2>A2 (BA)Bd | c2cA B2A2 | d2>^f2 (gf)ga | b2ag ^f2d2 | 
 B2dB A2G^F | A4 G4 :| B2dc B2B2 | (BA)cB G2D2 | A,2D^F F2DC | B,2B,2 [B,D]4 | B2dc B2B2 | 
 (BA)cB G2D2 | D2C2 A,2C2 | [B,D]2[B,D]2 [B,D]4 ::{D} B2BA A2A^F | G2GD [A,D]2[A,D]2 | 
 D2>^F2 (GF)GB | A2A^F G2F2 | A2>d2 (=ed)e^f | g2^f=e (Ad)(fd) | D2BG ^F2DC | C4 [B,D]4 :| </s><end_of_turn>
<start_of_turn>model
Sure, here is the extracted motif in ABC format:

g2ba g2d2 | (dc)ed B2G2 | D2^FA d2AF | G2DB, G<eos>

id:0
<bos><start_of_turn>user
You will see an instruction related to extracting the motif of a piece of ABC music. Your responses should only include the extracted motif in ABC format.

data is:
Human: Analyze the musical work and pinpoint the consistent melodic element in every section.
